src/images/shield_check.svg

<svg xmlns="http://www.w3.org/2000/svg" xmlns:xlink="http://www.w3.org/1999/xlink" version="1.1" x="0px" y="0px" viewBox="0 0 64 80" enable-background="new 0 0 64 64" xml:space="preserve"><g><g><path d="M50,19c-6.065,0-11-4.935-11-11c0-0.552-0.447-1-1-1H26c-0.552,0-1,0.448-1,1c0,6.065-4.935,11-11,11    c-0.552,0-1,0.448-1,1v12c0,11.426,17.664,24.271,18.416,24.812C31.59,56.938,31.795,57,32,57s0.41-0.062,0.584-0.188    C33.336,56.271,51,43.426,51,32V20C51,19.448,50.553,19,50,19z M49,32c0,9.313-13.948,20.432-17,22.752    C28.947,52.432,15,41.319,15,32V20.962C21.373,20.475,26.475,15.373,26.962,9l10.076,0C37.525,15.373,42.627,20.475,49,20.962V32z    "/><path d="M39.293,27.293L30,36.586l-3.293-3.293c-0.391-0.391-1.023-0.391-1.414,0s-0.391,1.023,0,1.414l4,4    C29.488,38.902,29.744,39,30,39s0.512-0.098,0.707-0.293l10-10c0.391-0.391,0.391-1.023,0-1.414S39.684,26.902,39.293,27.293z"/></g></g><text x="0" y="79" fill="#000000" font-size="5px" font-weight="bold" font-family="'Helvetica Neue', Helvetica, Arial-Unicode, Arial, Sans-serif">Created by Ralf Schmitzer</text><text x="0" y="84" fill="#000000" font-size="5px" font-weight="bold" font-family="'Helvetica Neue', Helvetica, Arial-Unicode, Arial, Sans-serif">from the Noun Project</text></svg>

<?xml version="1.0" encoding="UTF-8" standalone="no"?>
<!-- Created with Inkscape (http://www.inkscape.org/) -->

<svg
   xmlns:dc="http://purl.org/dc/elements/1.1/"
   xmlns:cc="http://creativecommons.org/ns#"
   xmlns:rdf="http://www.w3.org/1999/02/22-rdf-syntax-ns#"
   xmlns:svg="http://www.w3.org/2000/svg"
   xmlns="http://www.w3.org/2000/svg"
   xmlns:sodipodi="http://sodipodi.sourceforge.net/DTD/sodipodi-0.dtd"
   xmlns:inkscape="http://www.inkscape.org/namespaces/inkscape"
   width="12mm"
   height="14mm"
   viewBox="0 0 12 14"
   version="1.1"
   id="svg8"
   inkscape:version="0.92.1 r15371"
   sodipodi:docname="shield_check.svg">
  <defs
     id="defs2" />
  <sodipodi:namedview
     id="base"
     pagecolor="#ffffff"
     bordercolor="#666666"
     borderopacity="1.0"
     inkscape:pageopacity="0.0"
     inkscape:pageshadow="2"
     inkscape:zoom="7.9195959"
     inkscape:cx="1.9798534"
     inkscape:cy="9.5550736"
     inkscape:document-units="mm"
     inkscape:current-layer="layer1"
     showgrid="false"
     inkscape:window-width="1278"
     inkscape:window-height="1368"
     inkscape:window-x="1359"
     inkscape:window-y="0"
     inkscape:window-maximized="1" />
  <metadata
     id="metadata5">
    <rdf:RDF>
      <cc:Work
         rdf:about="">
        <dc:format>image/svg+xml</dc:format>
        <dc:type
           rdf:resource="http://purl.org/dc/dcmitype/StillImage" />
        <dc:title></dc:title>
      </cc:Work>
    </rdf:RDF>
  </metadata>
  <g
     inkscape:label="Layer 1"
     inkscape:groupmode="layer"
     id="layer1"
     transform="translate(0,-283)">
    <g
       id="g4498"
       transform="matrix(0.29535449,0,0,0.27460594,-3.4777498,281.1814)"
       style="fill:#34527b;fill-opacity:1">
      <g
         id="g4496"
         style="fill:#34527b;fill-opacity:1">
        <path
           id="path4492"
           d="M 50,19 C 43.935,19 39,14.065 39,8 39,7.448 38.553,7 38,7 H 26 c -0.552,0 -1,0.448 -1,1 0,6.065 -4.935,11 -11,11 -0.552,0 -1,0.448 -1,1 V 32 C 13,43.426 30.664,56.271 31.416,56.812 31.59,56.938 31.795,57 32,57 32.205,57 32.41,56.938 32.584,56.812 33.336,56.271 51,43.426 51,32 V 20 c 0,-0.552 -0.447,-1 -1,-1 z M 49,32 C 49,41.313 35.052,52.432 32,54.752 28.947,52.432 15,41.319 15,32 V 20.962 C 21.373,20.475 26.475,15.373 26.962,9 H 37.038 C 37.525,15.373 42.627,20.475 49,20.962 Z"
           inkscape:connector-curvature="0"
           style="fill:#34527b;fill-opacity:1" />
        <path
           id="path4494"
           d="M 39.293,27.293 30,36.586 26.707,33.293 c -0.391,-0.391 -1.023,-0.391 -1.414,0 -0.391,0.391 -0.391,1.023 0,1.414 l 4,4 C 29.488,38.902 29.744,39 30,39 c 0.256,0 0.512,-0.098 0.707,-0.293 l 10,-10 c 0.391,-0.391 0.391,-1.023 0,-1.414 -0.391,-0.391 -1.023,-0.391 -1.414,0 z"
           inkscape:connector-curvature="0"
           style="fill:#34527b;fill-opacity:1" />
      </g>
    </g>
  </g>
</svg>
